!! 00000] TT[WS
!!!OTL: Xia liulin
!!!ARE: Asia, China, Shanxi Lishan
!! Ethnic Group: Han
!! WI, 284 (1)
!!!SCT: J0341
!!!YEM: Copyright 1995, estate of Helmut Schaffrath.
**kern
*ICvox
*Ivox
*M2/4
*k[b-]
*F:
{8cc
16cc
16cc
8g
8cc
=1
8f
8d
4c
=2
8cc
8cc
8cc
8dd
=3
16cc
8g
16a
4g}
=4
{8g
8a
8cc
16dd
16cc
=5
8cc
16a
16g
4f
=6
8cc
16g
16f
8e
8d
=7
2c}
==
!!!AGN: Xiaodiao. Xinminge, Xuanchuan
!! Neue Text. Politische Liede
!!!ONB: ESAC (Essen Associative Code) Database: CHINA
!!!AMT: simple duple
!!!AIN: vox
!!!EED: Helmut Schaffrath
!!!EEV: 1.0
*-
